!!!COM: Fux, Johann Joseph
!!!OMD: Gradus ad Parnassum Exercise
!!!YEC: CC0 1.0 Universal (Public Domain). Mark Gotham and FourScoreAndMore.org waive all rights to this document.
**kern	**kern
*part2	*part1
*staff2	*staff1
*I"2	*I"1
*I'Pno	*I'Pno
!!LO:PB:g=z
*clefF4	*clefG2
*k[]	*k[]
!!LO:TX:omd:t=
*M2/2	*M2/2
=224	=224
!	!LO:TX:a:t=Fig. 43; Species&colon; 2; Modal final&colon; a; Cantus firmus&colon; Upper
2r	1A
2AA/	.
=225	=225
2A\	1c
2E\	.
=226	=226
2G\	1B
2E\	.
=227	=227
2D\	1d
2F\	.
=228	=228
2A\	1c
2B\	.
=229	=229
2c\	1e
2C/	.
!!LO:LB:g=z
=230	=230
2D\	1f
2AA/	.
=231	=231
2C/	1e
2E\	.
=232	=232
2F\	1d
2G\	.
=233	=233
2A\	1c
2AA/	.
=234	=234
2E\	1B
2G#X\	.
=235	=235
1A	1A
==	==
*-	*-
!!!software: music21 v.9.7.1
!!!software: music21 v.9.7.1
!!!software: MuseScore 3.4.2
!!!RDF**kern: > = above
!!!RDF**kern: < = below
